cssgg/toggle-square.svg

<svg
  width="24"
  height="24"
  viewBox="0 0 24 24"
  fill="none"
  xmlns="http://www.w3.org/2000/svg"
>
  <path
    d="M9 9C9.55228 9 10 9.44772 10 10V14C10 14.5523 9.55228 15 9 15H5C4.44772 15 4 14.5523 4 14V10C4 9.44772 4.44772 9 5 9H9Z"
    fill="currentColor"
  />
  <path
    fill-rule="evenodd"
    clip-rule="evenodd"
    d="M24 7C24 5.89543 23.1046 5 22 5H2C0.89543 5 0 5.89543 0 7V17C0 18.1046 0.895432 19 2 19H22C23.1046 19 24 18.1046 24 17V7ZM22 7H2V17H22V7Z"
    fill="currentColor"
  />
</svg>

<svg viewBox="0 0 24 24" xmlns="http://www.w3.org/2000/svg"><g><path d="M9 9c.55 0 1 .44 1 1v4c0 .55-.45 1-1 1H5c-.56 0-1-.45-1-1v-4c0-.56.44-1 1-1h4Z"/><path fill-rule="evenodd" d="M24 7c0-1.11-.9-2-2-2H2C.89 5 0 5.89 0 7v10c0 1.1.89 2 2 2h20c1.1 0 2-.9 2-2V7Zm-2 0H2v10h20V7Z"/></g></svg>
